X: 309
T:Dawn, The
M:C|
L:1/8
C:Sean Ryan
R:reel
D:De Dannan: Mist Covered Mountain.
Z:Bernhart
K:A
A,2CE D2FD|E2GB ~A3c|d2fd edcA|~B3c BAEC|
A,2CE D2FD|E2GB ~A3c|d2fd edcA|B2AB cAA2:|
|:c2ec fcec|A2Ac BAFD|E2EF ABcA|defg aefe|
c2ec fcec|A2Ac BAFA|E2EF ABcA|dfed cAA2:|
<end>
<start>
